icons/arrow-downwards.svg

<svg width="24" height="24" viewBox="0 0 24 24" fill="none" xmlns="http://www.w3.org/2000/svg">
<path fill-rule="evenodd" clip-rule="evenodd" d="M21.1282 18.0296C21.0879 18.1935 20.9923 18.3448 20.846 18.453C20.8126 18.4778 20.7777 18.4993 20.7418 18.5177C20.4878 18.7141 20.1836 18.8 19.9 18.8H19.8817L19.8635 18.7991L15.7635 18.5991C15.3497 18.5789 15.0307 18.2272 15.0509 17.8135C15.0711 17.3997 15.4228 17.0807 15.8365 17.1009L19.0281 17.2566L14.4399 11.0539C14.3399 10.9757 14.2068 10.966 14.0991 11.0197L11.668 13.8397L11.6227 13.8923L11.5685 13.9357C10.7772 14.5687 9.70149 14.4713 9.11991 13.726L2.73605 6.44451C2.46298 6.13305 2.49411 5.6592 2.80557 5.38613C3.11703 5.11307 3.59088 5.14419 3.86395 5.45566L10.264 12.7556L10.2828 12.7771L10.3 12.8C10.3215 12.8287 10.3543 12.8492 10.3996 12.8538C10.4352 12.8573 10.5009 12.8524 10.5867 12.7968L13.0319 9.96033L13.085 9.89879L13.15 9.85003C13.8261 9.34298 14.847 9.33634 15.5303 10.0197L15.5698 10.0591L15.603 10.104L19.8288 15.8167L19.9509 13.3135C19.9711 12.8997 20.3228 12.5807 20.7365 12.6009C21.1503 12.6211 21.4693 12.9728 21.4491 13.3865L21.2499 17.4713C21.2471 17.6717 21.205 17.8604 21.1282 18.0296Z" fill="black"/>
</svg>

<svg xmlns="http://www.w3.org/2000/svg" fill="none" viewBox="0 0 24 24">
  <path fill="#000" fill-rule="evenodd" d="M21.128 18.03a.747.747 0 0 1-.386.488 1.379 1.379 0 0 1-.842.282h-.037l-4.1-.2a.75.75 0 1 1 .073-1.5l3.192.157-4.588-6.203a.32.32 0 0 0-.34-.034l-2.432 2.82-.045.052-.054.044c-.792.633-1.868.535-2.45-.21L2.737 6.445a.75.75 0 1 1 1.128-.99l6.4 7.3.019.022.017.023c.021.029.054.05.1.054a.294.294 0 0 0 .187-.057l2.445-2.837.053-.061.065-.049a1.82 1.82 0 0 1 2.38.17l.04.04.033.044 4.226 5.713.122-2.504a.75.75 0 1 1 1.498.073l-.2 4.085c-.002.2-.044.39-.12.559Z" clip-rule="evenodd"/>
</svg>
